X:1
T:Tell It Wherever You Go
T:Tell It Wherever You Go
T:Willilam Edie Marks
T:Johnson Oatman, Jr., 1907
T:Public Domain Courtesy of the Cyber Hymnal™
T:Public Domain Courtesy of the Cyber Hymnal™
C:Willilam Edie Marks
Z:Public Domain
Z:Courtesy of the Cyber Hymnal™
%%score ( 1 2 ) ( 3 4 )
L:1/8
M:6/4
K:G
V:1 treble 
V:2 treble 
V:3 bass 
V:4 bass 
V:1
 [B,D]2 | [DG]3 [DG] [DG]2 [DG]2 [DA]2 [GB]2 | [Gd]3 [Gd] [Gd]2 [Gd]6 | %3
w: 1.~If|Christ the Re- deem- er has|par- doned your sin,|
w: 2.~If|now you are hap- py with|Christ as your guide,|
w: 3.~When|trou- bles as- sail, do you|trust in Him still?|
w: 4.~If|you are an heir to a|man- sion on high,|
 [GB] [GB]3 [GB]2 [Bd]2 [Ac]2 [GB]2 | [FA]6- [FA]4 D2 | [DG]3 [DG] [DG]2 [DG]2 [DA]2 [GB]2 | %6
w: Tell it wher- ev- er you|go; * If|in- to your dark- ness His|
w: Tell it wher- ev- er you|go; * If|He is your friend, and with|
w: Tell it wher- ev- er you|go; * When|sor- rows o’er- whelm, do you|
w: Tell it wher- ev- er you|go; * Un-|til you find rest in that|
 [Gd]3 [Gd] [Gd]2 (d4 c2) | [GB] [GB]3 [GB]2 [FA] [FA]3 [DA]2 | [DG]6- [DG]4 z2 || %9
w: light has shown in, *|Tell it wher- ev- er you|go. *|
w: Him you a- bide, *|Tell it wher- ev- er you|go. *|
w: sink in His will? *|Tell it wher- ev- er you|go. *|
w: home in the sky, *|Tell it wher- ev- er you|go. *|
"^Refrain" [GB](d z2 G2 d6) x2 | [GB](d z2 [Gd]6) x2 | [Gd]2 [G^c]2 [Gd]2 [Ge]2 [Gd]2 [GB]2 | %12
w: |||
w: Tell it, * *|tell it, *|* Tell it wher- ev- er|
w: |||
w: |||
 ([GB]6 [FA]4) D2 | [DG]3 [DG] [DG]2 [DG]2 [DA]2 [GB]2 | [Gd]3 [Gd] [Gd]2 (d4 c2) | %15
w: |||
w: you * go;|If you would win o- thers|from sin and from *|
w: |||
w: |||
 [GB] [GB]3 [GB]2 [FA] [FA]3 [DA]2 | [DG]6- [DG]4 |] %17
w: ||
w: woe, Tell it wher- ev- er|you *|
w: ||
w: ||
V:2
 x2 | x12 | x12 | x12 | x10 D2 | x12 | x6 G6 | x12 | x12 || x G3 (d4 G G3 G2) | x G3 d4 G2 x2 | %11
 x12 | x10 D2 | x12 | x6 G6 | x12 | x10 |] %17
V:3
 G,2 | [G,B,]3 [G,B,] [G,B,]2 [G,B,]2 [G,C]2 [G,D]2 | [G,B,]3 [G,B,] [G,B,]2 [G,B,]6 | %3
w: ~|~ ~ ~ ~ ~ ~|~ ~ ~ ~|
 [G,D] [G,D]3 [G,D]2 [G,D]2 [G,D]2 [G,D]2 | [D,D]6- [D,D]4 [F,C]2 | %5
w: ~ ~ ~ ~ ~ ~|~ * ~|
 [G,B,]3 [G,B,] [G,B,]2 [G,B,]2 [G,C]2 [G,D]2 | [G,B,]3 [G,B,] [G,B,]2 ([G,B,]4 [C,E]2) | %7
w: ~ ~ ~ ~ ~ ~|~ ~ ~ ~ *|
 [D,D] [D,D]3 [D,D]2 [D,C] [D,C]3 [D,C]2 | [G,,B,]6- [G,,B,]4 z2 || %9
w: ~ ~ ~ ~ ~ ~|~ *|
 [G,D] [G,B,]3 [G,B,]2 [G,B,] [G,B,]3 [G,B,]2 x2 | [G,D] [G,B,]3 [G,B,]2 [G,B,]6 | %11
w: Tell it that o- thers a-|round you may know,|
 [G,B,]2 [G,^A,]2 [G,B,]2 [G,C]2 [G,B,]2 [G,D]2 | [D,D]6- [D,D]4 [F,C]2 | %13
w: ||
 [G,B,]3 [G,B,] [G,B,]2 [G,B,]2 [G,C]2 [G,D]2 | [G,B,]3 [G,B,] [G,B,]2 ([G,B,]4 [C,E]2) | %15
w: ||
 [D,D] [D,D]3 [D,D]2 [D,C] [D,C]3 [D,C]2 | [G,,B,]6- [G,,B,]4 |] %17
w: ||
V:4
 G,2 | x12 | x12 | x12 | x12 | x12 | x12 | x12 | x12 || x14 | x12 | x12 | x12 | x12 | x12 | x12 | %16
 x10 |] %17

